**kern
*staff3
*tb16
=1-
*clefF4
*k[b-e-]
*M6/8
4BBB-/
.
.
.
8BB-/
.
8r
.
8r
.
8r
.
=2
4BBB-/
.
.
.
8BB-/
.
4BBB-/
.
.
.
8BB-/
.
=3
4BBB-/
.
.
.
8BB-/
.
4BBB-/
.
.
.
8BB-/
.
=4
!!linebreak:original
4BBB-/
.
.
.
8BB-/
.
4BBB-/
.
.
.
8BB-/
.
=5
4BBB-/
.
.
.
8BB-/
.
4BBB-/
.
.
.
8BB-/
.
=6
4EE-/
.
.
.
8E-\
.
4EE-/
.
.
.
8E-\
.
=7
4FF/ 4F/
.
.
.
8r
.
4r
.
.
.
8B-\
.
=8
!!linebreak:original
4F\
.
.
.
8r
.
4r
.
.
.
8BB-/
.
=9
4FF/
.
.
.
8r
.
8AA/L 8F/L
.
8AA/ 8F/
.
8AA/J 8F/J
.
=10
8AA-/L 8F/L
.
8AA-/ 8F/
.
8AA-/J 8F/J
.
4GG/ 4G/
.
.
.
8GG-/ 8G-/
.
=11
!!linebreak:original
4.FF/ 4.F/
.
.
.
.
.
4.FF/ 4.F/
.
.
.
.
.
=12
4.FF/ 4.F/
.
.
.
.
.
4.FF/ 4.F/
.
.
.
.
.
=13
4.BB-/
.
.
.
.
.
4.BB-/
.
.
.
.
.
=14
!!linebreak:original
4.BB-/
.
.
.
.
.
4.BB-/
.
.
.
.
.
=15
8EE-/L
.
8E-/
.
8E-/J
.
4.E-\
.
.
.
.
.
=16
4E-\
.
.
.
8r
.
4E-\
.
.
.
8r
.
=17
!!linebreak:original
2.FF/ 2.F/
.
.
.
.
.
.
.
.
.
.
.
=18
4BB-/
.
.
.
8r
.
4r
.
.
.
8F\
.
=19
4B-\
.
.
.
8r
.
4.r
.
.
.
.
.
=20
4BB-/
.
.
.
8FF/
.
4BB-/
.
.
.
8FF/
.
=21
4.BB-/
.
.
.
.
.
8r
.
4r
.
.
.
=22:|!
4BBB-/
.
.
.
8BB-/
.
8r
.
4r
.
.
.
=23
!!linebreak:original
4BBB-/
.
.
.
8BB-/
.
4BBB-/
.
.
.
8BB-/
.
=24
4BBB-/
.
.
.
8BB-/
.
4BBB-/
.
.
.
8BB-/
.
=25
4BBBn/
.
.
.
8BB#/
.
4BBB/
.
.
.
8BB#/
.
=26
4CC/
.
.
.
8C/
.
4CC/
.
.
.
8C/
.
=27
!!linebreak:original
4.FF/ 4.F/
.
.
.
.
.
4.GG-/ 4.G-/
.
.
.
.
.
=28
4FF/ 4F/
.
.
.
8r
.
4r
.
.
.
8B-\
.
=29
4F\
.
.
.
8r
.
4r
.
.
.
8BB-/
.
=30
4.FF/
.
.
.
.
.
4F\
.
.
.
8E-\
.
=31
!!linebreak:original
4.D\
.
.
.
.
.
4.AA/
.
.
.
.
.
=32
4.BB-/
.
.
.
.
.
8r
.
8D\L
.
8D\J
.
=33
4E-\
.
.
.
8r
.
8r
.
8D\L
.
8D\J
.
=34
4.C/
.
.
.
.
.
4.FF/ 4.F/
.
.
.
.
.
=35
!!linebreak:original
4.FF/ 4.F/
.
.
.
.
.
4.FF/ 4.F/
.
.
.
.
.
=36
4.BB-/
.
.
.
.
.
4.BB-/
.
.
.
.
.
=37
4.BB-/
.
.
.
.
.
4.BB-/
.
.
.
.
.
=38
!!linebreak:original
8EE-/L
.
8E-/
.
8E-/J
.
4.E-\
.
.
.
.
.
=39
4E-\
.
.
.
8r
.
4E-\
.
.
.
8r
.
=40
2.FF/ 2.F/
.
.
.
.
.
.
.
.
.
.
.
=41
!!linebreak:original
4BB-/
.
.
.
8r
.
4r
.
.
.
8F\
.
=42
4B-\
.
.
.
8r
.
4r
.
.
.
8F/ 8A/ 8c/
.
=43
*^
4F/ 4B-/ 4d/	4BB-\
.	.
.	.
.	.
8F/ 8A/ 8c/	8FF\
.	.
4F/ 4B-/ 4d/	4BB-\
.	.
.	.
.	.
8F/ 8A/ 8c/	8FF\
.	.
=44	=44
4.F/ 4.B-/ 4.d/	4.BB-\
.	.
.	.
.	.
.	.
.	.
*v	*v
==
*-
